**kern	**silbe	**kern	**silbe	**harmony	**phrase	**leadinstrument	**rhyme	**timestamp	**harte
*ICvox	*	*ICvox	*	*M4/4	*	*	*	*	*M4/4
*VRlead	*	*VRbacking*VRharmonize	*	*	*	*	*	*	*
*Hstimme	*	*Nstimme	*	*	*	*	*	*	*
*D:	*	*D:	*	*D:	*	*	*	*	*D:
*M4/4	*	*M4/4	*	*	*	*	*	*	*
*clefG2	*	*clefG2	*	*	*	*	*	*	*
r;	.	r;	.	1r;	.	r	.	0	N.C.
=1	=1	=1	=1	=1	=1	=1	=1	=1	=1
1r	.	1r	.	1r;	.	r	.	0.045	N.C.
=2	=2	=2	=2	=2	=2	=2	=2	=2	=2
*>Letter>A	*>Letter>A	*>Letter>A	*>Letter>A	*>Letter>A	*>Letter>A	*>Letter>A	*>Letter>A	*>Letter>A	*>Letter>A
*>Label>Intro	*>Label>Intro	*>Label>Intro	*>Label>Intro	*>Label>Intro	*>Label>Intro	*>Label>Intro	*>Label>Intro	*>Label>Intro	*>Label>Intro
1r	.	1r	.	2DM	newline	guitar	.	0.221	D:maj
.	.	.	.	2GM	.	guitar	.	1.675	G:maj/5
=3	=3	=3	=3	=3	=3	=3	=3	=3	=3
1r	.	1r	.	2AM	.	guitar	.	3.13	A:maj/4
.	.	.	.	2GM	.	guitar	.	4.584	G:maj/5
=4	=4	=4	=4	=4	=4	=4	=4	=4	=4
1r	.	1r	.	2DM	newline	guitar	.	6.038	D:maj
.	.	.	.	2GM	.	guitar	.	7.43	G:maj/5
=5	=5	=5	=5	=5	=5	=5	=5	=5	=5
1r	.	1r	.	2AM	.	guitar	.	8.821	A:maj/4
.	.	.	.	2GM	.	guitar	.	10.213	G:maj/5
=6	=6	=6	=6	=6	=6	=6	=6	=6	=6
*>Letter>B	*>Letter>B	*>Letter>B	*>Letter>B	*>Letter>B	*>Letter>B	*>Letter>B	*>Letter>B	*>Letter>B	*>Letter>B
*>Label>Verse	*>Label>Verse	*>Label>Verse	*>Label>Verse	*>Label>Verse	*>Label>Verse	*>Label>Verse	*>Label>Verse	*>Label>Verse	*>Label>Verse
8d	I've	1r	.	1DM	newline	voice	.	11.604	D:maj
8d	been	.	.	.	.	.	.	.	.
8d	a-	.	.	.	.	.	.	.	.
[8d	-round	.	.	.	.	.	A	.	.
8d]	_	.	.	.	.	.	.	.	.
16B	for	.	.	.	.	.	.	.	.
16A	_	.	.	.	.	.	.	.	.
4A	you	.	.	.	.	.	.	.	.
=7	=7	=7	=7	=7	=7	=7	=7	=7	=7
8d	Been	1r	.	1AM	.	voice	.	14.351	A:maj/3
8d	up	.	.	.	.	.	.	.	.
8d	and	.	.	.	.	.	.	.	.
[16d	down	.	.	.	.	.	A	.	.
[16e	_	.	.	.	.	.	.	.	.
16e]	_	.	.	.	.	.	.	.	.
32c#	for	.	.	.	.	.	.	.	.
32B	_	.	.	.	.	.	.	.	.
8A	_	.	.	.	.	.	.	.	.
8A	you	.	.	.	.	.	.	.	.
16A	but	.	.	.	.	.	.	.	.
[16B	I	.	.	.	.	.	.	.	.
=8	=8	=8	=8	=8	=8	=8	=8	=8	=8
16B]	_	1r	.	1GM	newline	voice	.	17.097	G:maj6/3
8.d]	just	.	.	.	.	.	.	.	.
8d	can't	.	.	.	.	.	.	.	.
8d	get	.	.	.	.	.	.	.	.
8d	a-	.	.	.	.	.	.	.	.
16c#	-ny	.	.	.	.	.	.	.	.
[16B	rel-	.	.	.	.	.	.	.	.
16B]	_	.	.	.	.	.	.	.	.
32A	-lief	.	.	.	.	.	B	.	.
32B	_	.	.	.	.	.	.	.	.
8A	_	.	.	.	.	.	.	.	.
=9	=9	=9	=9	=9	=9	=9	=9	=9	=9
4r	.	1r	.	1DM	.	voice	.	19.85	D:maj
4r	.	.	.	.	.	.	.	.	.
4r	.	.	.	.	.	.	.	.	.
8r	.	.	.	.	.	.	.	.	.
8A	I've	.	.	.	.	.	.	.	.
=10	=10	=10	=10	=10	=10	=10	=10	=10	=10
8d	swa-	1r	.	1DM	newline	voice	.	22.602	D:maj
8d	-llowed	.	.	.	.	.	.	.	.
8d	my	.	.	.	.	.	.	.	.
[8d	pride	.	.	.	.	.	C	.	.
8d]	_	.	.	.	.	.	.	.	.
16B	for	.	.	.	.	.	.	.	.
16A	_	.	.	.	.	.	.	.	.
4A	you	.	.	.	.	.	.	.	.
=11	=11	=11	=11	=11	=11	=11	=11	=11	=11
8r	.	1r	.	1AM	.	voice	.	25.361	A:maj/3
8d	Lived	.	.	.	.	.	.	.	.
8d	and	.	.	.	.	.	.	.	.
16d	lied	.	.	.	.	.	C	.	.
[16e	_	.	.	.	.	.	.	.	.
16e]	_	.	.	.	.	.	.	.	.
32c#	for	.	.	.	.	.	.	.	.
32B	_	.	.	.	.	.	.	.	.
8A	_	.	.	.	.	.	.	.	.
8A	you	.	.	.	.	.	.	.	.
16A	but	.	.	.	.	.	.	.	.
16A	uh	.	.	.	.	.	.	.	.
=12	=12	=12	=12	=12	=12	=12	=12	=12	=12
8B	you	1r	.	1GM	newline	voice	.	28.119	G:maj6/3
8d	still	.	.	.	.	.	.	.	.
8d	make	.	.	.	.	.	.	.	.
8d	me	.	.	.	.	.	.	.	.
8d	feel	.	.	.	.	.	.	.	.
8c#	like	.	.	.	.	.	C	.	.
8B	a	.	.	.	.	.	.	.	.
16B	thief	.	.	.	.	.	B	.	.
16A	_	.	.	.	.	.	.	.	.
=13	=13	=13	=13	=13	=13	=13	=13	=13	=13
2.r	.	1r	.	1DM	.	voice	.	30.899	D:maj
16d	You've	.	.	.	.	.	.	.	.
8d	got	.	.	.	.	.	.	.	.
16d	me	.	.	.	.	.	.	.	.
=14	=14	=14	=14	=14	=14	=14	=14	=14	=14
*>Letter>C	*>Letter>C	*>Letter>C	*>Letter>C	*>Letter>C	*>Letter>C	*>Letter>C	*>Letter>C	*>Letter>C	*>Letter>C
*>Label>Prechorus	*>Label>Prechorus	*>Label>Prechorus	*>Label>Prechorus	*>Label>Prechorus	*>Label>Prechorus	*>Label>Prechorus	*>Label>Prechorus	*>Label>Prechorus	*>Label>Prechorus
8d	steal-	1r	.	2AM	newline	voice	.	33.678	A:sus4
8e	-ing	.	.	.	.	.	.	.	.
8e	your	.	.	.	.	.	.	.	.
[8e	love	.	.	.	.	.	.	.	.
16e]	_	.	.	2AM	.	voice	.	35.042	A:maj
32c#	a-	.	.	.	.	.	.	.	.
32B	_	.	.	.	.	.	.	.	.
8A	_	.	.	.	.	.	.	.	.
8A	-way	.	.	.	.	.	.	.	.
16A	'cause	.	.	.	.	.	.	.	.
16A	uh	.	.	.	.	.	.	.	.
=15	=15	=15	=15	=15	=15	=15	=15	=15	=15
8B	you	1r	.	2GM	.	voice	.	36.407	G:maj
8d	ne-	.	.	.	.	.	.	.	.
8d	-ver	.	.	.	.	.	.	.	.
[8d	give	.	.	.	.	.	D	.	.
16d]	_	.	.	2DM	.	voice	.	37.771	D:maj
16B	it	.	.	.	.	.	.	.	.
16A	_	.	.	.	.	.	.	.	.
16r	.	.	.	.	.	.	.	.	.
4r	.	.	.	.	.	.	.	.	.
=16	=16	=16	=16	=16	=16	=16	=16	=16	=16
8e	Peel-	1r	.	1AM	newline	voice	.	39.135	A:maj
8e	-ing	.	.	.	.	.	.	.	.
8e	the	.	.	.	.	.	.	.	.
8f#	years	.	.	.	.	.	.	.	.
8e	_	.	.	.	.	.	.	.	.
16e	a-	.	.	.	.	.	.	.	.
32c#	-way	.	.	.	.	.	.	.	.
32B	_	.	.	.	.	.	.	.	.
8A	_	.	.	.	.	.	.	.	.
8A	and	.	.	.	.	.	.	.	.
=17	=17	=17	=17	=17	=17	=17	=17	=17	=17
16B	we	1r	.	2GM	.	voice	.	41.896	G:maj
8.d	can't	.	.	.	.	.	.	.	.
8d	re-	.	.	.	.	.	.	.	.
[8d	-live	.	.	.	.	.	D	.	.
16d]	_	.	.	2DM	.	voice	.	43.276	D:maj
16B	it	.	.	.	.	.	.	.	.
16A	_	.	.	.	.	.	.	.	.
16r	.	.	.	.	.	.	.	.	.
8r	.	.	.	.	.	.	.	.	.
16r	.	.	.	.	.	.	.	.	.
16A	Oh	.	.	.	.	.	.	.	.
=18	=18	=18	=18	=18	=18	=18	=18	=18	=18
8B	I'll	1r	.	2GM	newline	voice	.	44.656	G:maj
8d	make	.	.	.	.	.	.	.	.
8B	you	.	.	.	.	.	.	.	.
8f#	laugh	.	.	.	.	.	.	.	.
16e	_	.	.	2DM	.	voice	.	46.019	D:maj
16d	_	.	.	.	.	.	.	.	.
8r	.	.	.	.	.	.	.	.	.
8r	.	.	.	.	.	.	.	.	.
16B	If	.	.	.	.	.	.	.	.
16A	uh	.	.	.	.	.	.	.	.
=19	=19	=19	=19	=19	=19	=19	=19	=19	=19
8B	you	1r	.	2GM	.	voice	.	47.382	G:maj
8d	make	.	.	.	.	.	.	.	.
8d	me	.	.	.	.	.	.	.	.
8d	cry	.	.	.	.	.	C	.	.
16B	_	.	.	2DM	.	voice	.	48.744	D:maj
16A	_	.	.	.	.	.	.	.	.
8r	.	.	.	.	.	.	.	.	.
4r	.	.	.	.	.	.	.	.	.
=20	=20	=20	=20	=20	=20	=20	=20	=20	=20
8r	.	1r	.	1AM	newline	voice	.	50.107	A:maj
16A	I	.	.	.	.	.	.	.	.
16A	be-	.	.	.	.	.	.	.	.
16A	-lieve	.	.	.	.	.	.	.	.
8A	it's	.	.	.	.	.	.	.	.
16e	time	.	.	.	.	.	.	.	.
8f#	_	.	.	.	.	.	.	.	.
16e	for	.	.	.	.	.	.	.	.
[16d	me	.	.	.	.	.	.	.	.
16d]	_	.	.	.	.	.	.	.	.
16B	to	.	.	.	.	.	.	.	.
16d	fly	.	.	.	.	.	C	.	.
[16e	_	.	.	.	.	.	.	.	.
=21	=21	=21	=21	=21	=21	=21	=21	=21	=21
*>Letter>A	*>Letter>A	*>Letter>A	*>Letter>A	*>Letter>A	*>Letter>A	*>Letter>A	*>Letter>A	*>Letter>A	*>Letter>A
*>Label>Trans	*>Label>Trans	*>Label>Trans	*>Label>Trans	*>Label>Trans	*>Label>Trans	*>Label>Trans	*>Label>Trans	*>Label>Trans	*>Label>Trans
16e]	_	1r	.	2DM	->newline	guitar	.	52.854	D:maj
[8.d	_	.	.	.	.	.	.	.	.
2.d_	_	.	.	.	.	.	.	.	.
.	.	.	.	2GM	.	guitar	.	54.198	G:maj
=22	=22	=22	=22	=22	=22	=22	=22	=22	=22
8d]	_	1r	.	2AM	.	guitar	.	55.542	A:maj
32c#	_	.	.	.	.	.	.	.	.
32B	_	.	.	.	.	.	.	.	.
[16A	_	.	.	.	.	.	.	.	.
4A]	_	.	.	.	.	.	.	.	.
2r	.	.	.	2GM	.	guitar	.	56.887	G:maj
=23	=23	=23	=23	=23	=23	=23	=23	=23	=23
1r	.	1r	.	2DM	newline	guitar	.	58.231	D:maj
.	.	.	.	2GM	.	guitar	.	59.514	G:maj
=24	=24	=24	=24	=24	=24	=24	=24	=24	=24
1r	.	1r	.	2AM	.	guitar	.	60.797	A:maj
.	.	.	.	2GM	.	guitar	.	62.079	G:maj
=25	=25	=25	=25	=25	=25	=25	=25	=25	=25
*>Letter>B	*>Letter>B	*>Letter>B	*>Letter>B	*>Letter>B	*>Letter>B	*>Letter>B	*>Letter>B	*>Letter>B	*>Letter>B
*>Label>Verse	*>Label>Verse	*>Label>Verse	*>Label>Verse	*>Label>Verse	*>Label>Verse	*>Label>Verse	*>Label>Verse	*>Label>Verse	*>Label>Verse
8d	You	1r	.	1DM	newline	voice	.	63.362	D:maj
8d	said	.	.	.	.	.	.	.	.
8d	we'd	.	.	.	.	.	.	.	.
[8d	work	.	.	.	.	.	.	.	.
16d]	_	.	.	.	.	.	.	.	.
16B	it	.	.	.	.	.	.	.	.
16A	out	.	.	.	.	.	A	.	.
16B	_	.	.	.	.	.	.	.	.
8r	.	.	.	.	.	.	.	.	.
16r	.	.	.	.	.	.	.	.	.
16A	You	.	.	.	.	.	.	.	.
=26	=26	=26	=26	=26	=26	=26	=26	=26	=26
8d	said	1r	.	2AM	.	voice	.	65.961	A:sus4
8d	that	.	.	.	.	.	.	.	.
8d	you	.	.	.	.	.	.	.	.
16d	had	.	.	.	.	.	.	.	.
[16e	_	.	.	.	.	.	.	.	.
16e]	_	.	.	2AM	.	voice	.	67.261	A:maj
8c#	no	.	.	.	.	.	.	.	.
32c#	doubt	.	.	.	.	.	A	.	.
32B	_	.	.	.	.	.	.	.	.
8A	_	.	.	.	.	.	.	.	.
16r	.	.	.	.	.	.	.	.	.
16A	that	.	.	.	.	.	.	.	.
=27	=27	=27	=27	=27	=27	=27	=27	=27	=27
8B	deep	1r	.	1GM	newline	voice	.	68.561	G:maj
8d	down	.	.	.	.	.	A	.	.
8d	we	.	.	.	.	.	.	.	.
16d	were	.	.	.	.	.	.	.	.
[16d	rea-	.	.	.	.	.	.	.	.
8d]	_	.	.	.	.	.	.	.	.
16c#	-ly	.	.	.	.	.	.	.	.
[16B	in	.	.	.	.	.	.	.	.
16B]	_	.	.	.	.	.	.	.	.
32c#	love	.	.	.	.	.	E	.	.
32B	_	.	.	.	.	.	.	.	.
[8A	_	.	.	.	.	.	.	.	.
=28	=28	=28	=28	=28	=28	=28	=28	=28	=28
8A]	_	1r	.	1DM	.	voice	.	71.219	D:maj
8r	.	.	.	.	.	.	.	.	.
4r	.	.	.	.	.	.	.	.	.
4r	.	.	.	.	.	.	.	.	.
16r	.	.	.	.	.	.	.	.	.
16d	Oh	.	.	.	.	.	.	.	.
16d	ah	.	.	.	.	.	.	.	.
16d	but	.	.	.	.	.	.	.	.
=29	=29	=29	=29	=29	=29	=29	=29	=29	=29
8d	I'm	1r	.	1DM	newline	voice	.	73.877	D:maj
8d	tired	.	.	.	.	.	.	.	.
8d	of	.	.	.	.	.	.	.	.
[8d	hold-	.	.	.	.	.	F	.	.
16d]	_	.	.	.	.	.	.	.	.
16A	_	.	.	.	.	.	.	.	.
16B	-in'	.	.	.	.	.	.	.	.
[16A	on	.	.	.	.	.	.	.	.
8A]	_	.	.	.	.	.	.	.	.
16A	to	.	.	.	.	.	.	.	.
16A	a	.	.	.	.	.	.	.	.
=30	=30	=30	=30	=30	=30	=30	=30	=30	=30
8d	feel-	1r	.	2AM	.	voice	.	76.544	A:sus4
8d	-ing	.	.	.	.	.	.	.	.
8d	I	.	.	.	.	.	.	.	.
16d	know	.	.	.	.	.	F	.	.
[16e	_	.	.	.	.	.	.	.	.
16e]	_	.	.	2AM	.	voice	.	77.877	A:maj
8c#	is	.	.	.	.	.	.	.	.
32c#	gone	.	.	.	.	.	.	.	.
32B	_	.	.	.	.	.	.	.	.
8A	_	.	.	.	.	.	.	.	.
8r	.	.	.	.	.	.	.	.	.
=31	=31	=31	=31	=31	=31	=31	=31	=31	=31
16r	.	1r	.	1GM	newline	voice	.	79.21	G:maj
16B	I	.	.	.	.	.	.	.	.
16d	do	.	.	.	.	.	.	.	.
16d	be-	.	.	.	.	.	.	.	.
8d	-lieve	.	.	.	.	.	.	.	.
16d	that	.	.	.	.	.	.	.	.
[16d	I've	.	.	.	.	.	.	.	.
8d]	_	.	.	.	.	.	.	.	.
8c#	had	.	.	.	.	.	.	.	.
16B	e-	.	.	.	.	.	.	.	.
32A	-nough	.	.	.	.	.	E	.	.
32B	_	.	.	.	.	.	.	.	.
8A	_	.	.	.	.	.	.	.	.
=32	=32	=32	=32	=32	=32	=32	=32	=32	=32
2.r	.	1r	.	1DM	.	voice	.	81.869	D:maj
16B	I've	.	.	.	.	.	.	.	.
8d	had	.	.	.	.	.	.	.	.
16d	e-	.	.	.	.	.	.	.	.
=33	=33	=33	=33	=33	=33	=33	=33	=33	=33
*>Letter>C	*>Letter>C	*>Letter>C	*>Letter>C	*>Letter>C	*>Letter>C	*>Letter>C	*>Letter>C	*>Letter>C	*>Letter>C
*>Label>Prechorus	*>Label>Prechorus	*>Label>Prechorus	*>Label>Prechorus	*>Label>Prechorus	*>Label>Prechorus	*>Label>Prechorus	*>Label>Prechorus	*>Label>Prechorus	*>Label>Prechorus
8d	-nough	1r	.	1AM	newline	voice	.	84.528	A:maj
8e	of	.	.	.	.	.	.	.	.
8e	the	.	.	.	.	.	.	.	.
16d	false-	.	.	.	.	.	.	.	.
[16e	_	.	.	.	.	.	.	.	.
16e]	_	.	.	.	.	.	.	.	.
32c#	-ness	.	.	.	.	.	.	.	.
32B	_	.	.	.	.	.	.	.	.
8A	_	.	.	.	.	.	.	.	.
16A	of	.	.	.	.	.	.	.	.
16A	a	.	.	.	.	.	.	.	.
[8B	worn	.	.	.	.	.	.	.	.
=34	=34	=34	=34	=34	=34	=34	=34	=34	=34
8B]	_	1r	.	2GM	.	voice	.	87.187	G:maj
8d	out	.	.	.	.	.	.	.	.
8d	re-	.	.	.	.	.	.	.	.
[8d	-la-	.	.	.	.	.	(F	.	.
16d]	_	.	.	2DM	.	voice	.	88.517	D:maj
16B	-tion	.	.	.	.	.	f)	.	.
8A	_	.	.	.	.	.	.	.	.
8r	.	.	.	.	.	.	.	.	.
16r	.	.	.	.	.	.	.	.	.
16A	E-	.	.	.	.	.	.	.	.
=35	=35	=35	=35	=35	=35	=35	=35	=35	=35
8e	-nough	1r	.	1AM	newline	voice	.	89.846	A:maj
8e	of	.	.	.	.	.	.	.	.
8e	the	.	.	.	.	.	.	.	.
8f#	jea-	.	.	.	.	.	.	.	.
8e	_	.	.	.	.	.	.	.	.
16e	-lous-	.	.	.	.	.	.	.	.
32c#	-y	.	.	.	.	.	.	.	.
32B	_	.	.	.	.	.	.	.	.
8A	_	.	.	.	.	.	.	.	.
16A	and	.	.	.	.	.	.	.	.
16A	the	.	.	.	.	.	.	.	.
=36	=36	=36	=36	=36	=36	=36	=36	=36	=36
8B	in-	1r	.	2GM	.	voice	.	92.472	G:maj
8d	-to-	.	.	.	.	.	.	.	.
16d	-ler-	.	.	.	.	.	.	.	.
[8.d	-a-	.	.	.	.	.	(F	.	.
16d]	_	.	.	2DM	.	voice	.	93.784	D:maj
16B	-tion	.	.	.	.	.	f)	.	.
8A	_	.	.	.	.	.	.	.	.
8r	.	.	.	.	.	.	.	.	.
16r	.	.	.	.	.	.	.	.	.
16A	Oh	.	.	.	.	.	.	.	.
=37	=37	=37	=37	=37	=37	=37	=37	=37	=37
8B	I'll	1r	.	2GM	newline	voice	.	95.097	G:maj
8d	make	.	.	.	.	.	.	.	.
8B	you	.	.	.	.	.	.	.	.
8f#	laugh	.	.	.	.	.	.	.	.
16e	_	.	.	2DM	.	voice	.	96.399	D:maj
16d	_	.	.	.	.	.	.	.	.
8r	.	.	.	.	.	.	.	.	.
8r	.	.	.	.	.	.	.	.	.
16B	And	.	.	.	.	.	.	.	.
16A	uh	.	.	.	.	.	.	.	.
=38	=38	=38	=38	=38	=38	=38	=38	=38	=38
8B	you	1r	.	2GM	.	voice	.	97.702	G:maj
8d	make	.	.	.	.	.	.	.	.
8d	me	.	.	.	.	.	.	.	.
8d	cry	.	.	.	.	.	C	.	.
16B	_	.	.	2DM	.	voice	.	99.004	D:maj
8A	_	.	.	.	.	.	.	.	.
16r	.	.	.	.	.	.	.	.	.
4r	.	.	.	.	.	.	.	.	.
=39	=39	=39	=39	=39	=39	=39	=39	=39	=39
8r	.	1r	.	1AM	newline	voice	.	100.306	A:maj
16A	I	.	.	.	.	.	.	.	.
16A	be-	.	.	.	.	.	.	.	.
16A	-lieve	.	.	.	.	.	.	.	.
8A	it's	.	.	.	.	.	.	.	.
16e	time	.	.	.	.	.	.	.	.
8f#	_	.	.	.	.	.	.	.	.
16e	for	.	.	.	.	.	.	.	.
[16d	me	.	.	.	.	.	.	.	.
16d]	_	.	.	.	.	.	.	.	.
16B	to	.	.	.	.	.	.	.	.
16d	fly	.	.	.	.	.	C	.	.
[16e	_	.	.	.	.	.	.	.	.
=40	=40	=40	=40	=40	=40	=40	=40	=40	=40
*>Letter>A2	*>Letter>A2	*>Letter>A2	*>Letter>A2	*>Letter>A2	*>Letter>A2	*>Letter>A2	*>Letter>A2	*>Letter>A2	*>Letter>A2
*>Label>Trans	*>Label>Trans	*>Label>Trans	*>Label>Trans	*>Label>Trans	*>Label>Trans	*>Label>Trans	*>Label>Trans	*>Label>Trans	*>Label>Trans
16e]	_	1r	.	2DM	newline	guitar	.	103.005	D:maj
[8.d	_	.	.	.	.	.	.	.	.
2d_	_	.	.	.	.	.	.	.	.
.	.	.	.	2GM	.	guitar	.	104.318	G:maj
16d]	_	.	.	.	.	.	.	.	.
8f#	_	.	.	.	.	.	.	.	.
16e	_	.	.	.	.	.	.	.	.
=41	=41	=41	=41	=41	=41	=41	=41	=41	=41
32f#	_	2r	.	1DM	.	guitar	.	105.63	D:maj
32e	_	.	.	.	.	.	.	.	.
8.d	_	.	.	.	.	.	.	.	.
4r	.	.	.	.	.	.	.	.	.
2r	.	8a	Time	.	.	.	.	.	.
.	.	16a	for	.	.	.	.	.	.
.	.	[16a	me	.	.	.	.	.	.
.	.	16a]	_	.	.	.	.	.	.
.	.	16a	to	.	.	.	.	.	.
.	.	8a	fly	.	.	.	C	.	.
=42	=42	=42	=42	=42	=42	=42	=42	=42	=42
*>Letter>D	*>Letter>D	*>Letter>D	*>Letter>D	*>Letter>D	*>Letter>D	*>Letter>D	*>Letter>D	*>Letter>D	*>Letter>D
*>Label>Chorus	*>Label>Chorus	*>Label>Chorus	*>Label>Chorus	*>Label>Chorus	*>Label>Chorus	*>Label>Chorus	*>Label>Chorus	*>Label>Chorus	*>Label>Chorus
4r	.	16f#	_	1AM	newline	voice	.	108.255	A:maj
.	.	[8.e	_	.	.	.	.	.	.
8.r	.	2e_	_	.	.	.	.	.	.
16A	Oh	.	.	.	.	.	.	.	.
8f#	I've	.	.	.	.	.	.	.	.
8e	got	.	.	.	.	.	.	.	.
8c#	to	8e]	_	.	.	.	.	.	.
16c#	set	[8d	_	.	.	.	.	.	.
[16d	_	.	.	.	.	.	.	.	.
=43	=43	=43	=43	=43	=43	=43	=43	=43	=43
16d]	_	4d]	_	2GM	.	voice	.	110.901	G:maj
16c#	my	.	.	.	.	.	.	.	.
8B	_	.	.	.	.	.	.	.	.
8A	self	4r	.	.	.	.	.	.	.
[8A	free	.	.	.	.	.	B	.	.
16A]	_	8a	Time	2DM	.	voice	.	112.224	D:maj
32F#	_	.	.	.	.	.	.	.	.
32G	_	.	.	.	.	.	.	.	.
8F#	_	16a	for	.	.	.	.	.	.
.	.	[16a	me	.	.	.	.	.	.
4r	.	16a]	_	.	.	.	.	.	.
.	.	16a	to	.	.	.	.	.	.
.	.	8a	fly	.	.	.	.	.	.
=44	=44	=44	=44	=44	=44	=44	=44	=44	=44
4r	.	16f#	_	1AM	newline	voice	.	113.547	A:maj
.	.	[8.e	_	.	.	.	.	.	.
8.r	.	2.e]	_	.	.	.	.	.	.
16A	And	.	.	.	.	.	.	.	.
8e	that's	.	.	.	.	.	.	.	.
8d	just	.	.	.	.	.	.	.	.
16d	how	.	.	.	.	.	.	.	.
8.d	it's	.	.	.	.	.	.	.	.
=45	=45	=45	=45	=45	=45	=45	=45	=45	=45
8d	got	4.b	Ooh	2GM	.	voice	.	116.234	G:maj
8e	to	.	.	.	.	.	.	.	.
8d	_	.	.	.	.	.	.	.	.
8f#	be	[8a	_	.	.	.	B	.	.
16e	_	4a]	_	2DM	.	voice	.	117.577	D:maj
8.d	_	.	.	.	.	.	.	.	.
4r	.	4r	.	.	.	.	.	.	.
=46	=46	=46	=46	=46	=46	=46	=46	=46	=46
8r	.	1r	.	1GM	newline	voice	.	118.92	G:maj
16r	.	.	.	.	.	.	.	.	.
16A	I	.	.	.	.	.	.	.	.
16B	know	.	.	.	.	.	.	.	.
8d	it	.	.	.	.	.	.	.	.
[16d	hurts	.	.	.	.	.	.	.	.
8d]	_	.	.	.	.	.	.	.	.
16B	to	.	.	.	.	.	.	.	.
[16d	say	.	.	.	.	.	.	.	.
16d]	_	.	.	.	.	.	.	.	.
16d	good-	.	.	.	.	.	.	.	.
8e	_	.	.	.	.	.	.	.	.
=47	=47	=47	=47	=47	=47	=47	=47	=47	=47
16e	-bye	1r	.	1AM	.	voice	C	121.47	A:maj
16B	_	.	.	.	.	.	.	.	.
8c#	_	.	.	.	.	.	.	.	.
8r	.	.	.	.	.	.	.	.	.
16A	but	.	.	.	.	.	.	.	.
16A	it's	.	.	.	.	.	.	.	.
16e	time	.	.	.	.	.	.	.	.
16f#	_	.	.	.	.	.	.	.	.
16e	for	.	.	.	.	.	.	.	.
[16d	me	.	.	.	.	.	.	.	.
16d]	_	.	.	.	.	.	.	.	.
16B	to	.	.	.	.	.	.	.	.
16d	fly	.	.	.	.	.	C	.	.
[16e	_	.	.	.	.	.	.	.	.
=48	=48	=48	=48	=48	=48	=48	=48	=48	=48
16e]	_	1r	.	1GM	newline	voice	.	124.02	G:maj
[8.d	_	.	.	.	.	.	.	.	.
4d_	_	.	.	.	.	.	.	.	.
4.d]	_	.	.	.	.	.	.	.	.
8e	_	.	.	.	.	.	.	.	.
=49	=49	=49	=49	=49	=49	=49	=49	=49	=49
4.e	_	1r	.	1AM	.	voice	.	126.59	A:maj
16e	uh	.	.	.	.	.	.	.	.
[16f#	yeah	.	.	.	.	.	.	.	.
8f#]	_	.	.	.	.	.	.	.	.
8f#	_	.	.	.	.	.	.	.	.
8f#	_	.	.	.	.	.	.	.	.
16e	_	.	.	.	.	.	.	.	.
[16d	_	.	.	.	.	.	.	.	.
=50	=50	=50	=50	=50	=50	=50	=50	=50	=50
*>Letter>E	*>Letter>E	*>Letter>E	*>Letter>E	*>Letter>E	*>Letter>E	*>Letter>E	*>Letter>E	*>Letter>E	*>Letter>E
*>Label>Solo	*>Label>Solo	*>Label>Solo	*>Label>Solo	*>Label>Solo	*>Label>Solo	*>Label>Solo	*>Label>Solo	*>Label>Solo	*>Label>Solo
4d]	_	1r	.	1DM	newline	guitar	.	129.16	D:maj
4r	.	.	.	.	.	.	.	.	.
2r	.	.	.	.	.	.	.	.	.
=51	=51	=51	=51	=51	=51	=51	=51	=51	=51
1r	.	1r	.	1DM	.	guitar	.	131.772	D:maj
=52	=52	=52	=52	=52	=52	=52	=52	=52	=52
1r	.	1r	.	1GM	newline	guitar	.	134.384	G:maj
=53	=53	=53	=53	=53	=53	=53	=53	=53	=53
8r	.	1r	.	1GM	.	guitar	.	137.047	G:maj
[4.f#	Ooh	.	.	.	.	.	.	.	.
8f#]	_	.	.	.	.	.	.	.	.
16e	_	.	.	.	.	.	.	.	.
[16d	_	.	.	.	.	.	.	.	.
16d]	_	.	.	.	.	.	.	.	.
16d	_	.	.	.	.	.	.	.	.
[8e	ba-	.	.	.	.	.	.	.	.
=54	=54	=54	=54	=54	=54	=54	=54	=54	=54
4e]	_	1r	.	1AM	newline	guitar	.	139.71	A:sus4
8d	-by	.	.	.	.	.	.	.	.
16B	_	.	.	.	.	.	.	.	.
[16A	_	.	.	.	.	.	.	.	.
2A_	_	.	.	.	.	.	.	.	.
=55	=55	=55	=55	=55	=55	=55	=55	=55	=55
4.A]	_	1r	.	1AM	.	guitar	.	142.353	A:maj
8r	.	.	.	.	.	.	.	.	.
2r	.	.	.	.	.	.	.	.	.
=56	=56	=56	=56	=56	=56	=56	=56	=56	=56
1r	.	1r	.	2DM	newline	guitar	.	144.997	D:maj
.	.	.	.	2GM	.	guitar	.	146.264	G:maj
=57	=57	=57	=57	=57	=57	=57	=57	=57	=57
16r	.	2r	.	1DM	.	guitar	.	147.531	D:maj
16d	Uh	.	.	.	.	.	.	.	.
16d	don't	.	.	.	.	.	.	.	.
16d	you	.	.	.	.	.	.	.	.
16d	know	.	.	.	.	.	.	.	.
8.d	it's	.	.	.	.	.	.	.	.
8f#	Time	2r	.	.	.	.	.	.	.
16a	for	.	.	.	.	.	.	.	.
[16a	me	.	.	.	.	.	.	.	.
16a]	_	.	.	.	.	.	.	.	.
16a	to	.	.	.	.	.	.	.	.
8a	fly	.	.	.	.	.	C	.	.
=58	=58	=58	=58	=58	=58	=58	=58	=58	=58
*>Letter>D	*>Letter>D	*>Letter>D	*>Letter>D	*>Letter>D	*>Letter>D	*>Letter>D	*>Letter>D	*>Letter>D	*>Letter>D
*>Label>Chorus	*>Label>Chorus	*>Label>Chorus	*>Label>Chorus	*>Label>Chorus	*>Label>Chorus	*>Label>Chorus	*>Label>Chorus	*>Label>Chorus	*>Label>Chorus
16f#	_	16f#	Fly	1AM	newline	voice	.	150.065	A:maj
8e	_	[8.e	_	.	.	.	.	.	.
16r	.	.	.	.	.	.	.	.	.
8.r	.	2.e]	_	.	.	.	.	.	.
16A	Oh	.	.	.	.	.	.	.	.
8e	I've	.	.	.	.	.	.	.	.
8f#	got	.	.	.	.	.	.	.	.
8e	to	.	.	.	.	.	.	.	.
16f#	set	.	.	.	.	.	.	.	.
[16g	_	.	.	.	.	.	.	.	.
=59	=59	=59	=59	=59	=59	=59	=59	=59	=59
16g]	_	4.g	_	2GM	.	voice	.	152.683	G:maj
16f#	my	.	.	.	.	.	.	.	.
8e	_	.	.	.	.	.	.	.	.
8d	self	.	.	.	.	.	.	.	.
8f#	free	8f#	_	.	.	.	B	.	.
16e	_	8a	Time	2DM	.	voice	.	153.993	D:maj
16d	_	.	.	.	.	.	.	.	.
8r	.	16a	for	.	.	.	.	.	.
.	.	[16a	me	.	.	.	.	.	.
16r	.	16a]	_	.	.	.	.	.	.
16e	Oh	16a	to	.	.	.	.	.	.
16f#	_	8a	fly	.	.	.	C	.	.
[16e	_	.	.	.	.	.	.	.	.
=60	=60	=60	=60	=60	=60	=60	=60	=60	=60
8e]	_	16f#	_	1AM	newline	voice	.	155.302	A:maj
.	.	[8.e	_	.	.	.	.	.	.
16d	_	.	.	.	.	.	.	.	.
16c#	_	.	.	.	.	.	.	.	.
8c#	_	2.e]	_	.	.	.	.	.	.
16c#	and	.	.	.	.	.	.	.	.
[16d	that's	.	.	.	.	.	.	.	.
16d]	_	.	.	.	.	.	.	.	.
8.d	_	.	.	.	.	.	.	.	.
16d	how	.	.	.	.	.	.	.	.
8e	it's	.	.	.	.	.	.	.	.
16d	uh	.	.	.	.	.	.	.	.
=61	=61	=61	=61	=61	=61	=61	=61	=61	=61
8f#	got	1r	.	2GM	.	voice	.	157.889	G:maj
8e	to	.	.	.	.	.	.	.	.
8d	_	.	.	.	.	.	.	.	.
8d	be	.	.	.	.	.	B	.	.
16B	_	.	.	2DM	.	voice	.	159.182	D:maj
16A	_	.	.	.	.	.	.	.	.
8r	.	.	.	.	.	.	.	.	.
16r	.	.	.	.	.	.	.	.	.
16e	Oh	.	.	.	.	.	.	.	.
16f#	_	.	.	.	.	.	.	.	.
32e	_	.	.	.	.	.	.	.	.
32d	_	.	.	.	.	.	.	.	.
=62	=62	=62	=62	=62	=62	=62	=62	=62	=62
16B	_	1r	.	1GM	newline	voice	.	160.476	G:maj
16r	.	.	.	.	.	.	.	.	.
16r	.	.	.	.	.	.	.	.	.
16d	I	.	.	.	.	.	.	.	.
16d	know	.	.	.	.	.	.	.	.
8d	it	.	.	.	.	.	.	.	.
16f#	hurts	.	.	.	.	.	.	.	.
8g	_	.	.	.	.	.	.	.	.
16f#	to	.	.	.	.	.	.	.	.
[16f#	say	.	.	.	.	.	.	.	.
16f#]	_	.	.	.	.	.	.	.	.
16e	good-	.	.	.	.	.	.	.	.
8f#	_	.	.	.	.	.	.	.	.
=63	=63	=63	=63	=63	=63	=63	=63	=63	=63
16e	-bye	1r	.	2AM	.	voice	C	163.075	A:sus4
16B	_	.	.	.	.	.	.	.	.
8c#	_	.	.	.	.	.	.	.	.
8r	.	.	.	.	.	.	.	.	.
16A	but	.	.	.	.	.	.	.	.
16A	it's	.	.	.	.	.	.	.	.
16f#	time	.	.	2AM	.	voice	.	164.374	A:maj
16g	_	.	.	.	.	.	.	.	.
16e	for	.	.	.	.	.	.	.	.
[16d	me	.	.	.	.	.	.	.	.
16d]	_	.	.	.	.	.	.	.	.
16d	to	.	.	.	.	.	.	.	.
16d	fly	.	.	.	.	.	C	.	.
[16e	_	.	.	.	.	.	.	.	.
=64	=64	=64	=64	=64	=64	=64	=64	=64	=64
16e]	_	1r	.	1GM	newline	voice	.	165.674	G:maj
[8.d	_	.	.	.	.	.	.	.	.
4d_	_	.	.	.	.	.	.	.	.
4d_	_	.	.	.	.	.	.	.	.
16d]	_	.	.	.	.	.	.	.	.
16B	uh	.	.	.	.	.	.	.	.
16d	yeah	.	.	.	.	.	.	.	.
[16e	_	.	.	.	.	.	.	.	.
=65	=65	=65	=65	=65	=65	=65	=65	=65	=65
8e]	_	1r	.	1AM	.	voice	.	168.282	A:maj
8r	.	.	.	.	.	.	.	.	.
8r	.	.	.	.	.	.	.	.	.
8A	it's	.	.	.	.	.	.	.	.
16f#	time	.	.	.	.	.	.	.	.
16g	_	.	.	.	.	.	.	.	.
16d	for	.	.	.	.	.	.	.	.
[16d	me	.	.	.	.	.	.	.	.
16d]	_	.	.	.	.	.	.	.	.
16d	to	.	.	.	.	.	.	.	.
[8d	fly	.	.	.	.	.	C	.	.
=66	=66	=66	=66	=66	=66	=66	=66	=66	=66
16d]	_	1r	.	1GM	newline	voice	.	170.891	G:maj
32F#	_	.	.	.	.	.	.	.	.
32E	_	.	.	.	.	.	.	.	.
4D	_	.	.	.	.	.	.	.	.
[8g	ah	.	.	.	.	.	.	.	.
8g]	_	.	.	.	.	.	.	.	.
16f#	ee	.	.	.	.	.	.	.	.
[16f#	ah	.	.	.	.	.	.	.	.
16f#]	_	.	.	.	.	.	.	.	.
16e	ee	.	.	.	.	.	.	.	.
[8e	ah	.	.	.	.	.	.	.	.
=67	=67	=67	=67	=67	=67	=67	=67	=67	=67
16e]	_	1r	.	1AM	.	voice	.	173.467	A:maj
32c#	_	.	.	.	.	.	.	.	.
32B	_	.	.	.	.	.	.	.	.
8A	_	.	.	.	.	.	.	.	.
8r	.	.	.	.	.	.	.	.	.
8A	it's	.	.	.	.	.	.	.	.
16f#	time	.	.	.	.	.	.	.	.
16g	_	.	.	.	.	.	.	.	.
16e	for	.	.	.	.	.	.	.	.
[16e	me	.	.	.	.	.	.	.	.
16e]	_	.	.	.	.	.	.	.	.
16e	to	.	.	.	.	.	.	.	.
32f#	fly	.	.	.	.	.	C	.	.
32e	_	.	.	.	.	.	.	.	.
[16d	_	.	.	.	.	.	.	.	.
=68	=68	=68	=68	=68	=68	=68	=68	=68	=68
*>Letter>F	*>Letter>F	*>Letter>F	*>Letter>F	*>Letter>F	*>Letter>F	*>Letter>F	*>Letter>F	*>Letter>F	*>Letter>F
*>Label>Outro	*>Label>Outro	*>Label>Outro	*>Label>Outro	*>Label>Outro	*>Label>Outro	*>Label>Outro	*>Label>Outro	*>Label>Outro	*>Label>Outro
2.d_	_	1r	.	2DM	newline	voice	.	176.043	D:maj
.	.	.	.	2GM	.	voice	.	177.355	G:maj
8.d]	_	.	.	.	.	.	.	.	.
[16e	_	.	.	.	.	.	.	.	.
=69	=69	=69	=69	=69	=69	=69	=69	=69	=69
8e]	_	4r	.	2AM	.	voice	.	178.666	A:maj
16d	_	.	.	.	.	.	.	.	.
[16c#	_	.	.	.	.	.	.	.	.
2c#]	_	8r	.	.	.	.	.	.	.
.	.	8e	it's	.	.	.	.	.	.
.	.	8e	time	2GM	.	voice	.	179.977	G:maj
.	.	16e	for	.	.	.	.	.	.
.	.	[16e	me	.	.	.	.	.	.
4r	.	16e]	_	.	.	.	.	.	.
.	.	16e	to	.	.	.	.	.	.
.	.	16e	fly	.	.	.	C	.	.
.	.	[16f#	_	.	.	.	.	.	.
=70	=70	=70	=70	=70	=70	=70	=70	=70	=70
1r	.	8f#]	_	2DM	newline	voice	.	181.288	D:maj
.	.	16g	_	.	.	.	.	.	.
.	.	[16f#	_	.	.	.	.	.	.
.	.	16f#]	_	.	.	.	.	.	.
.	.	16e	_	.	.	.	.	.	.
.	.	[8d	_	.	.	.	.	.	.
.	.	4d_	_	2GM	.	voice	.	182.583	G:maj
.	.	16d]	_	.	.	.	.	.	.
.	.	16B	_	.	.	.	.	.	.
.	.	16d	_	.	.	.	.	.	.
.	.	[16e	_	.	.	.	.	.	.
=71	=71	=71	=71	=71	=71	=71	=71	=71	=71
4r	.	8e]	_	2AM	.	voice	.	183.877	A:maj
.	.	8r	.	.	.	.	.	.	.
8r	.	4r	.	.	.	.	.	.	.
8e	it's	.	.	.	.	.	.	.	.
8g	time	2r	.	2GM	.	voice	.	185.171	G:maj
16g	for	.	.	.	.	.	.	.	.
[16g	me	.	.	.	.	.	.	.	.
16g]	_	.	.	.	.	.	.	.	.
16g	to	.	.	.	.	.	.	.	.
16g	fly	.	.	.	.	.	C	.	.
[16a	_	.	.	.	.	.	.	.	.
=72	=72	=72	=72	=72	=72	=72	=72	=72	=72
8a]	_	1r	.	2DM	newline	voice	.	186.466	D:maj
32f#	_	.	.	.	.	.	.	.	.
32e	_	.	.	.	.	.	.	.	.
[16d	_	.	.	.	.	.	.	.	.
2d_	_	.	.	.	.	.	.	.	.
.	.	.	.	2GM	.	voice	.	187.753	G:maj
16d]	_	.	.	.	.	.	.	.	.
16B	uh	.	.	.	.	.	.	.	.
16d	yeah	.	.	.	.	.	.	.	.
[16e	_	.	.	.	.	.	.	.	.
=73	=73	=73	=73	=73	=73	=73	=73	=73	=73
16e]	_	1r	.	2AM	.	voice	.	189.039	A:maj
16d	_	.	.	.	.	.	.	.	.
16c#	_	.	.	.	.	.	.	.	.
16r	.	.	.	.	.	.	.	.	.
8r	.	.	.	.	.	.	.	.	.
8d	it's	.	.	.	.	.	.	.	.
16f#	time	.	.	2GM	.	voice	.	190.326	G:maj
16g	_	.	.	.	.	.	.	.	.
16e	for	.	.	.	.	.	.	.	.
[16d	me	.	.	.	.	.	.	.	.
16d]	_	.	.	.	.	.	.	.	.
16d	to	.	.	.	.	.	.	.	.
[8d	fly	.	.	.	.	.	C	.	.
=74	=74	=74	=74	=74	=74	=74	=74	=74	=74
2.d]	_	1r	.	1GM	.	voice	.	191.613	G:maj
4r	.	.	.	.	.	.	.	.	.
=74	=74	=74	=74	=74	=74	=74	=74	=74	=74
r;	.	r;	.	1DM	newline	voice	.	194.187	D:maj
r;	.	r;	.	1r;	.	r	.	213.133	N.C.
*-	*-	*-	*-	*-	*-	*-	*-	*-	*-
!!!BillboardChartDate: 1980/05/31, 1980/07/05
!!!BillboardPeak: 56, 56
!!!BillboardWeeksOnChart: 13, 13
!!!COC: REO Speedwagon
!!!ENC: Nathaniel Condit-Schultz
!!!EST: Awating manual error checking and editing.
!!!OTL: Time For Me To Fly
!!!RDF**chordsym: original McGill chord annotation + (implied pitch class set, with bass pitch in first position)
!!!RDF**harmony: **recip + pitch class of root + harmonic quality
!!!RDF**leadinstrument: original McGill primary instrumentation annotation
!!!RDF**phrase: newline = linebreak in original McGill transcription
!!!RDF**timestamp: McGill audio timestamp in seconds
!!!RDT: 2017/01/12/
!!!SampleActualRank: 90, 86
!!!SampleID#: 268, 910
!!!SampleTargetRank: 90, 85
